icons/widgets/Quote.svg

<path
	d="M0 4C0 2.93913 0.421427 1.92172 1.17157 1.17157C1.92172 0.421427 2.93913 0 4 0L28 0C29.0609 0 30.0783 0.421427 30.8284 1.17157C31.5786 1.92172 32 2.93913 32 4V20C32 21.0609 31.5786 22.0783 30.8284 22.8284C30.0783 23.5786 29.0609 24 28 24H8.828C8.29761 24.0001 7.78899 24.2109 7.414 24.586L1.708 30.292C1.56826 30.4321 1.3901 30.5276 1.19607 30.5664C1.00204 30.6052 0.800863 30.5855 0.617999 30.51C0.435134 30.4344 0.278804 30.3062 0.168795 30.1418C0.0587852 29.9773 4.20298e-05 29.7839 0 29.586L0 4ZM14.388 9.532C14.2562 9.33524 14.104 9.15291 13.934 8.988C13.6667 8.71275 13.348 8.49259 12.996 8.34L12.98 8.332C12.5063 8.11208 11.9902 7.99875 11.468 8C9.552 8 8 9.492 8 11.334C8 13.174 9.552 14.666 11.468 14.666C12.154 14.666 12.792 14.476 13.33 14.146C13.056 14.924 12.55 15.754 11.71 16.586C11.6309 16.6632 11.5684 16.7558 11.5264 16.8581C11.4844 16.9604 11.4639 17.0702 11.4659 17.1808C11.468 17.2913 11.4926 17.4003 11.5384 17.5009C11.5842 17.6016 11.6501 17.6918 11.732 17.766C12.078 18.086 12.626 18.076 12.96 17.746C15.628 15.088 15.7 12.23 14.842 10.334C14.716 10.0537 14.564 9.78591 14.388 9.534V9.532ZM22 14.146C21.728 14.924 21.22 15.754 20.38 16.586C20.301 16.6634 20.2387 16.7561 20.1969 16.8584C20.1551 16.9608 20.1347 17.0706 20.1369 17.1812C20.1391 17.2917 20.164 17.4007 20.2099 17.5012C20.2559 17.6018 20.3219 17.6919 20.404 17.766C20.748 18.086 21.296 18.076 21.63 17.746C24.298 15.088 24.37 12.23 23.514 10.334C23.3873 10.0537 23.2346 9.78586 23.058 9.534C22.9263 9.33653 22.7741 9.15352 22.604 8.988C22.3367 8.71271 22.0181 8.49255 21.666 8.34L21.65 8.332C21.177 8.11236 20.6615 7.99904 20.14 8C18.226 8 16.672 9.492 16.672 11.334C16.672 13.174 18.226 14.666 20.14 14.666C20.826 14.666 21.464 14.476 22.002 14.146H22Z"
	fill="#000" />

<path d="M0 4a4 4 0 0 1 4-4h24a4 4 0 0 1 4 4v16a4 4 0 0 1-4 4H8.828a2 2 0 0 0-1.414.586l-5.706 5.706A1 1 0 0 1 0 29.586V4Zm14.388 5.532a3.374 3.374 0 0 0-.454-.544 2.934 2.934 0 0 0-.938-.648l-.016-.008A3.57 3.57 0 0 0 11.468 8C9.552 8 8 9.492 8 11.334c0 1.84 1.552 3.332 3.468 3.332.686 0 1.324-.19 1.862-.52-.274.778-.78 1.608-1.62 2.44a.81.81 0 0 0 .022 1.18c.346.32.894.31 1.228-.02 2.668-2.658 2.74-5.516 1.882-7.412a4.916 4.916 0 0 0-.454-.8v-.002ZM22 14.146c-.272.778-.78 1.608-1.62 2.44a.81.81 0 0 0 .024 1.18c.344.32.892.31 1.226-.02 2.668-2.658 2.74-5.516 1.884-7.412a4.932 4.932 0 0 0-.456-.8 3.374 3.374 0 0 0-.454-.546 2.932 2.932 0 0 0-.938-.648l-.016-.008A3.57 3.57 0 0 0 20.14 8c-1.914 0-3.468 1.492-3.468 3.334 0 1.84 1.554 3.332 3.468 3.332.686 0 1.324-.19 1.862-.52H22Z"/>
